48x48/apps/cpuinfo.svg

<svg viewBox="0 0 48 48"><defs><linearGradient id="linearGradient3764" x1="1" x2="47" gradientUnits="userSpaceOnUse" gradientTransform="matrix(0,-1,1,0,-1.5e-6,47.999998)"><stop stop-color="#dea700" stop-opacity="1"/><stop offset="1" stop-color="#f2b700" stop-opacity="1"/></linearGradient><clipPath id="clipPath-264175639"><g transform="translate(0,-1004.3622)"><path d="m -24 13 c 0 1.105 -0.672 2 -1.5 2 -0.828 0 -1.5 -0.895 -1.5 -2 0 -1.105 0.672 -2 1.5 -2 0.828 0 1.5 0.895 1.5 2 z" transform="matrix(15.333333,0,0,11.5,414.99999,878.8622)" fill="#1890d0"/></g></clipPath><clipPath id="clipPath-272651492"><g transform="translate(0,-1004.3622)"><path d="m -24 13 c 0 1.105 -0.672 2 -1.5 2 -0.828 0 -1.5 -0.895 -1.5 -2 0 -1.105 0.672 -2 1.5 -2 0.828 0 1.5 0.895 1.5 2 z" transform="matrix(15.333333,0,0,11.5,414.99999,878.8622)" fill="#1890d0"/></g></clipPath></defs><g><path d="m 36.31 5 c 5.859 4.062 9.688 10.831 9.688 18.5 c 0 12.426 -10.07 22.5 -22.5 22.5 c -7.669 0 -14.438 -3.828 -18.5 -9.688 c 1.037 1.822 2.306 3.499 3.781 4.969 c 4.085 3.712 9.514 5.969 15.469 5.969 c 12.703 0 23 -10.298 23 -23 c 0 -5.954 -2.256 -11.384 -5.969 -15.469 c -1.469 -1.475 -3.147 -2.744 -4.969 -3.781 z m 4.969 3.781 c 3.854 4.113 6.219 9.637 6.219 15.719 c 0 12.703 -10.297 23 -23 23 c -6.081 0 -11.606 -2.364 -15.719 -6.219 c 4.16 4.144 9.883 6.719 16.219 6.719 c 12.703 0 23 -10.298 23 -23 c 0 -6.335 -2.575 -12.06 -6.719 -16.219 z" opacity="0.05"/><path d="m 41.28 8.781 c 3.712 4.085 5.969 9.514 5.969 15.469 c 0 12.703 -10.297 23 -23 23 c -5.954 0 -11.384 -2.256 -15.469 -5.969 c 4.113 3.854 9.637 6.219 15.719 6.219 c 12.703 0 23 -10.298 23 -23 c 0 -6.081 -2.364 -11.606 -6.219 -15.719 z" opacity="0.1"/><path d="m 31.25 2.375 c 8.615 3.154 14.75 11.417 14.75 21.13 c 0 12.426 -10.07 22.5 -22.5 22.5 c -9.708 0 -17.971 -6.135 -21.12 -14.75 a 23 23 0 0 0 44.875 -7 a 23 23 0 0 0 -16 -21.875 z" opacity="0.2"/></g><g><path d="m 24 1 c 12.703 0 23 10.297 23 23 c 0 12.703 -10.297 23 -23 23 -12.703 0 -23 -10.297 -23 -23 0 -12.703 10.297 -23 23 -23 z" fill="url(#linearGradient3764)" fill-opacity="1"/></g><g/><g><g clip-path="url(#clipPath-264175639)"><g transform="translate(1,1)"><g opacity="0.1"><!-- color: #f2b700 --><g><path d="m 19.875 9 c -0.492 0 -0.875 0.383 -0.875 0.875 l 0 3.125 l -1.656 0 c -2.398 0 -4.313 1.914 -4.313 4.313 l 0 0.688 l -3.156 0 c -0.492 0 -0.875 0.387 -0.875 0.875 l 0 0.25 c 0 0.492 0.383 0.875 0.875 0.875 l 3.156 0 l 0 2 l -3.156 0 c -0.492 0 -0.875 0.387 -0.875 0.875 l 0 0.25 c 0 0.492 0.383 0.875 0.875 0.875 l 3.156 0 l 0 2 l -3.156 0 c -0.492 0 -0.875 0.387 -0.875 0.875 l 0 0.25 c 0 0.492 0.383 0.875 0.875 0.875 l 3.156 0 l 0 2.688 c 0 2.398 1.914 4.316 4.313 4.316 l 1.656 0 l 0 3.125 c 0 0.488 0.383 0.875 0.875 0.875 l 0.25 0 c 0.492 0 0.875 -0.387 0.875 -0.875 l 0 -3.125 l 2 0 l 0 3.125 c 0 0.488 0.383 0.875 0.875 0.875 l 0.25 0 c 0.492 0 0.875 -0.387 0.875 -0.875 l 0 -3.125 l 2 0 l 0 3.125 c 0 0.488 0.383 0.875 0.875 0.875 l 0.25 0 c 0.492 0 0.875 -0.387 0.875 -0.875 l 0 -3.125 l 1.688 0 c 2.398 0 4.313 -1.914 4.313 -4.316 l 0 -2.688 l 3.125 0 c 0.492 0 0.875 -0.383 0.875 -0.875 l 0 -0.25 c 0 -0.488 -0.383 -0.875 -0.875 -0.875 l -3.125 0 l 0 -2 l 3.125 0 c 0.492 0 0.875 -0.383 0.875 -0.875 l 0 -0.25 c 0 -0.488 -0.383 -0.875 -0.875 -0.875 l -3.125 0 l 0 -2 l 3.125 0 c 0.492 0 0.875 -0.383 0.875 -0.875 l 0 -0.25 c 0 -0.488 -0.383 -0.875 -0.875 -0.875 l -3.125 0 l 0 -0.688 c 0 -2.398 -1.914 -4.313 -4.313 -4.313 l -1.688 0 l 0 -3.125 c 0 -0.492 -0.383 -0.875 -0.875 -0.875 l -0.25 0 c -0.492 0 -0.875 0.383 -0.875 0.875 l 0 3.125 l -2 0 l 0 -3.125 c 0 -0.492 -0.383 -0.875 -0.875 -0.875 l -0.25 0 c -0.492 0 -0.875 0.383 -0.875 0.875 l 0 3.125 l -2 0 l 0 -3.125 c 0 -0.492 -0.383 -0.875 -0.875 -0.875 m -1.594 6 l 10.938 0 c 1.961 0 3.531 1.57 3.531 3.531 l 0 10.938 c 0 1.961 -1.57 3.531 -3.531 3.531 l -10.938 0 c -1.961 0 -3.5 -1.57 -3.5 -3.531 l 0 -10.938 c 0 -1.961 1.539 -3.531 3.5 -3.531 m 0 0" fill="#000" stroke="none" fill-rule="nonzero" fill-opacity="1"/><path d="m 19.762 17 c -1.527 0 -2.746 1.219 -2.746 2.746 l 0 8.5 c 0 1.527 1.219 2.746 2.746 2.746 l 8.5 0 c 1.527 0 2.746 -1.219 2.746 -2.746 l 0 -8.5 c 0 -1.527 -1.219 -2.746 -2.746 -2.746 m -8.5 0" fill="#000" stroke="none" fill-rule="nonzero" fill-opacity="1"/></g></g></g></g></g><g><g clip-path="url(#clipPath-272651492)"><!-- color: #f2b700 --><g><path d="m 19.875 9 c -0.492 0 -0.875 0.383 -0.875 0.875 l 0 3.125 l -1.656 0 c -2.398 0 -4.313 1.914 -4.313 4.313 l 0 0.688 l -3.156 0 c -0.492 0 -0.875 0.387 -0.875 0.875 l 0 0.25 c 0 0.492 0.383 0.875 0.875 0.875 l 3.156 0 l 0 2 l -3.156 0 c -0.492 0 -0.875 0.387 -0.875 0.875 l 0 0.25 c 0 0.492 0.383 0.875 0.875 0.875 l 3.156 0 l 0 2 l -3.156 0 c -0.492 0 -0.875 0.387 -0.875 0.875 l 0 0.25 c 0 0.492 0.383 0.875 0.875 0.875 l 3.156 0 l 0 2.688 c 0 2.398 1.914 4.316 4.313 4.316 l 1.656 0 l 0 3.125 c 0 0.488 0.383 0.875 0.875 0.875 l 0.25 0 c 0.492 0 0.875 -0.387 0.875 -0.875 l 0 -3.125 l 2 0 l 0 3.125 c 0 0.488 0.383 0.875 0.875 0.875 l 0.25 0 c 0.492 0 0.875 -0.387 0.875 -0.875 l 0 -3.125 l 2 0 l 0 3.125 c 0 0.488 0.383 0.875 0.875 0.875 l 0.25 0 c 0.492 0 0.875 -0.387 0.875 -0.875 l 0 -3.125 l 1.688 0 c 2.398 0 4.313 -1.914 4.313 -4.316 l 0 -2.688 l 3.125 0 c 0.492 0 0.875 -0.383 0.875 -0.875 l 0 -0.25 c 0 -0.488 -0.383 -0.875 -0.875 -0.875 l -3.125 0 l 0 -2 l 3.125 0 c 0.492 0 0.875 -0.383 0.875 -0.875 l 0 -0.25 c 0 -0.488 -0.383 -0.875 -0.875 -0.875 l -3.125 0 l 0 -2 l 3.125 0 c 0.492 0 0.875 -0.383 0.875 -0.875 l 0 -0.25 c 0 -0.488 -0.383 -0.875 -0.875 -0.875 l -3.125 0 l 0 -0.688 c 0 -2.398 -1.914 -4.313 -4.313 -4.313 l -1.688 0 l 0 -3.125 c 0 -0.492 -0.383 -0.875 -0.875 -0.875 l -0.25 0 c -0.492 0 -0.875 0.383 -0.875 0.875 l 0 3.125 l -2 0 l 0 -3.125 c 0 -0.492 -0.383 -0.875 -0.875 -0.875 l -0.25 0 c -0.492 0 -0.875 0.383 -0.875 0.875 l 0 3.125 l -2 0 l 0 -3.125 c 0 -0.492 -0.383 -0.875 -0.875 -0.875 m -1.594 6 l 10.938 0 c 1.961 0 3.531 1.57 3.531 3.531 l 0 10.938 c 0 1.961 -1.57 3.531 -3.531 3.531 l -10.938 0 c -1.961 0 -3.5 -1.57 -3.5 -3.531 l 0 -10.938 c 0 -1.961 1.539 -3.531 3.5 -3.531 m 0 0" fill="#f2f2f2" stroke="none" fill-rule="nonzero" fill-opacity="1"/><path d="m 19.762 17 c -1.527 0 -2.746 1.219 -2.746 2.746 l 0 8.5 c 0 1.527 1.219 2.746 2.746 2.746 l 8.5 0 c 1.527 0 2.746 -1.219 2.746 -2.746 l 0 -8.5 c 0 -1.527 -1.219 -2.746 -2.746 -2.746 m -8.5 0" fill="#f2f2f2" stroke="none" fill-rule="nonzero" fill-opacity="1"/></g></g></g><g><path d="m 40.03 7.531 c 3.712 4.084 5.969 9.514 5.969 15.469 0 12.703 -10.297 23 -23 23 c -5.954 0 -11.384 -2.256 -15.469 -5.969 4.178 4.291 10.01 6.969 16.469 6.969 c 12.703 0 23 -10.298 23 -23 0 -6.462 -2.677 -12.291 -6.969 -16.469 z" opacity="0.1"/></g></svg>

<?xml version="1.0" encoding="UTF-8" standalone="no"?>
<svg
   xmlns:dc="http://purl.org/dc/elements/1.1/"
   xmlns:cc="http://creativecommons.org/ns#"
   xmlns:rdf="http://www.w3.org/1999/02/22-rdf-syntax-ns#"
   xmlns:svg="http://www.w3.org/2000/svg"
   xmlns="http://www.w3.org/2000/svg"
   xmlns:sodipodi="http://sodipodi.sourceforge.net/DTD/sodipodi-0.dtd"
   xmlns:inkscape="http://www.inkscape.org/namespaces/inkscape"
   viewBox="0 0 48 48"
   id="svg2"
   version="1.1"
   inkscape:version="0.48.4 r9939"
   width="100%"
   height="100%"
   sodipodi:docname="cpuinfo.svg">
  <metadata
     id="metadata65">
    <rdf:RDF>
      <cc:Work
         rdf:about="">
        <dc:format>image/svg+xml</dc:format>
        <dc:type
           rdf:resource="http://purl.org/dc/dcmitype/StillImage" />
      </cc:Work>
    </rdf:RDF>
  </metadata>
  <sodipodi:namedview
     pagecolor="#ffffff"
     bordercolor="#666666"
     borderopacity="1"
     objecttolerance="10"
     gridtolerance="10"
     guidetolerance="10"
     inkscape:pageopacity="0"
     inkscape:pageshadow="2"
     inkscape:window-width="1440"
     inkscape:window-height="834"
     id="namedview63"
     showgrid="false"
     inkscape:zoom="4.9166667"
     inkscape:cx="-1.4237288"
     inkscape:cy="24"
     inkscape:window-x="0"
     inkscape:window-y="27"
     inkscape:window-maximized="1"
     inkscape:current-layer="svg2" />
  <defs
     id="defs4">
    <linearGradient
       id="linearGradient3764"
       x1="1"
       x2="47"
       gradientUnits="userSpaceOnUse"
       gradientTransform="matrix(0,-1,1,0,-1.5e-6,47.999998)">
      <stop
         stop-color="#dea700"
         stop-opacity="1"
         id="stop7" />
      <stop
         offset="1"
         stop-color="#f2b700"
         stop-opacity="1"
         id="stop9" />
    </linearGradient>
    <clipPath
       id="clipPath-264175639">
      <g
         transform="translate(0,-1004.3622)"
         id="g12">
        <path
           d="m -24 13 c 0 1.105 -0.672 2 -1.5 2 -0.828 0 -1.5 -0.895 -1.5 -2 0 -1.105 0.672 -2 1.5 -2 0.828 0 1.5 0.895 1.5 2 z"
           transform="matrix(15.333333,0,0,11.5,414.99999,878.8622)"
           fill="#1890d0"
           id="path14" />
      </g>
    </clipPath>
    <clipPath
       id="clipPath-272651492">
      <g
         transform="translate(0,-1004.3622)"
         id="g17">
        <path
           d="m -24 13 c 0 1.105 -0.672 2 -1.5 2 -0.828 0 -1.5 -0.895 -1.5 -2 0 -1.105 0.672 -2 1.5 -2 0.828 0 1.5 0.895 1.5 2 z"
           transform="matrix(15.333333,0,0,11.5,414.99999,878.8622)"
           fill="#1890d0"
           id="path19" />
      </g>
    </clipPath>
    <linearGradient
       id="linearGradient3764-0"
       x1="1"
       x2="47"
       gradientUnits="userSpaceOnUse"
       gradientTransform="matrix(0,-1,1,0,-1.5e-6,47.999998)">
      <stop
         stop-color="#b5945b"
         stop-opacity="1"
         id="stop7-1" />
      <stop
         offset="1"
         stop-color="#bb9e69"
         stop-opacity="1"
         id="stop9-8" />
    </linearGradient>
    <clipPath
       id="clipPath-899834956">
      <g
         transform="translate(0,-1004.3622)"
         id="g12-0">
        <path
           d="m -24 13 c 0 1.105 -0.672 2 -1.5 2 -0.828 0 -1.5 -0.895 -1.5 -2 0 -1.105 0.672 -2 1.5 -2 0.828 0 1.5 0.895 1.5 2 z"
           transform="matrix(15.333333,0,0,11.5,414.99999,878.8622)"
           fill="#1890d0"
           id="path14-4" />
      </g>
    </clipPath>
    <clipPath
       id="clipPath-909443126">
      <g
         transform="translate(0,-1004.3622)"
         id="g17-21">
        <path
           d="m -24 13 c 0 1.105 -0.672 2 -1.5 2 -0.828 0 -1.5 -0.895 -1.5 -2 0 -1.105 0.672 -2 1.5 -2 0.828 0 1.5 0.895 1.5 2 z"
           transform="matrix(15.333333,0,0,11.5,414.99999,878.8622)"
           fill="#1890d0"
           id="path19-31" />
      </g>
    </clipPath>
    <clipPath
       id="clipPath-909443126-7">
      <g
         transform="translate(0,-1004.3622)"
         id="g17-2">
        <path
           style="fill:#1890d0"
           inkscape:connector-curvature="0"
           d="m -24,13 c 0,1.105 -0.672,2 -1.5,2 -0.828,0 -1.5,-0.895 -1.5,-2 0,-1.105 0.672,-2 1.5,-2 0.828,0 1.5,0.895 1.5,2 z"
           transform="matrix(15.333333,0,0,11.5,414.99999,878.8622)"
           id="path19-3" />
      </g>
    </clipPath>
    <linearGradient
       id="linearGradient3759">
      <stop
         id="stop3761"
         offset="0"
         style="stop-color:#a75e15;stop-opacity:1;" />
      <stop
         id="stop3763"
         offset="1"
         style="stop-color:#ffffff;stop-opacity:0;" />
    </linearGradient>
    <linearGradient
       id="linearGradient3777">
      <stop
         id="stop3779"
         offset="0"
         style="stop-color:#e0dd00;stop-opacity:1;" />
      <stop
         id="stop3781"
         offset="1"
         style="stop-color:#000000;stop-opacity:0;" />
    </linearGradient>
    <clipPath
       id="clipPath-272651492-1">
      <g
         transform="translate(0,-1004.3622)"
         id="g17-7">
        <path
           style="fill:#1890d0"
           inkscape:connector-curvature="0"
           d="m -24,13 c 0,1.105 -0.672,2 -1.5,2 -0.828,0 -1.5,-0.895 -1.5,-2 0,-1.105 0.672,-2 1.5,-2 0.828,0 1.5,0.895 1.5,2 z"
           transform="matrix(15.333333,0,0,11.5,414.99999,878.8622)"
           id="path19-37" />
      </g>
    </clipPath>
  </defs>
  <g
     id="g33" />
  <g
     id="g3089">
    <g
       inkscape:label="shadows"
       id="layer2">
      <rect
         ry="13.03658"
         rx="13.03658"
         y="1"
         x="1"
         height="46"
         width="46"
         id="rect3007"
         style="opacity:0.1;fill:#000000;fill-opacity:1;fill-rule:nonzero;stroke:none" />
      <rect
         style="opacity:0.1;fill:#000000;fill-opacity:1;fill-rule:nonzero;stroke:none"
         id="rect3011"
         width="47"
         height="47"
         x="0.5"
         y="0.5"
         rx="13.319984"
         ry="13.319984" />
      <rect
         style="opacity:0.1;fill:#000000;fill-opacity:1;fill-rule:nonzero;stroke:none"
         id="rect3013"
         width="46.5"
         height="46.5"
         x="0.75"
         y="0.75"
         rx="13.178282"
         ry="13.178282" />
    </g>
    <g
       style="display:inline"
       inkscape:label="background-color"
       id="layer1">
      <rect
         transform="matrix(0,-1,1,0,0,0)"
         ry="12.753176"
         rx="12.753176"
         y="1.5"
         x="-46.5"
         height="45"
         width="45"
         id="rect2988"
         style="fill:#dea700;fill-opacity:1;fill-rule:nonzero;stroke:none" />
    </g>
  </g>
  <g
     id="g49-3"
     transform="translate(-5e-4,-0.0025)">
    <g
       clip-path="url(#clipPath-272651492-1)"
       id="g51-6">
      <!-- color: #f2b700 -->
      <g
         id="g53-5">
        <path
           d="M 19.875,9 C 19.383,9 19,9.383 19,9.875 L 19,13 17.344,13 c -2.398,0 -4.313,1.914 -4.313,4.313 l 0,0.688 -3.156,0 C 9.383,18.001 9,18.388 9,18.876 l 0,0.25 c 0,0.492 0.383,0.875 0.875,0.875 l 3.156,0 0,2 -3.156,0 C 9.383,22.001 9,22.388 9,22.876 l 0,0.25 c 0,0.492 0.383,0.875 0.875,0.875 l 3.156,0 0,2 -3.156,0 C 9.383,26.001 9,26.388 9,26.876 l 0,0.25 c 0,0.492 0.383,0.875 0.875,0.875 l 3.156,0 0,2.688 c 0,2.398 1.914,4.316 4.313,4.316 l 1.656,0 0,3.125 c 0,0.488 0.383,0.875 0.875,0.875 l 0.25,0 C 20.617,39.005 21,38.618 21,38.13 l 0,-3.125 2,0 0,3.125 c 0,0.488 0.383,0.875 0.875,0.875 l 0.25,0 C 24.617,39.005 25,38.618 25,38.13 l 0,-3.125 2,0 0,3.125 c 0,0.488 0.383,0.875 0.875,0.875 l 0.25,0 C 28.617,39.005 29,38.618 29,38.13 l 0,-3.125 1.688,0 c 2.398,0 4.313,-1.914 4.313,-4.316 l 0,-2.688 3.125,0 c 0.492,0 0.875,-0.383 0.875,-0.875 l 0,-0.25 c 0,-0.488 -0.383,-0.875 -0.875,-0.875 l -3.125,0 0,-2 3.125,0 c 0.492,0 0.875,-0.383 0.875,-0.875 l 0,-0.25 c 0,-0.488 -0.383,-0.875 -0.875,-0.875 l -3.125,0 0,-2 3.125,0 c 0.492,0 0.875,-0.383 0.875,-0.875 l 0,-0.25 c 0,-0.488 -0.383,-0.875 -0.875,-0.875 l -3.125,0 0,-0.688 C 35.001,14.915 33.087,13 30.688,13 L 29,13 29,9.875 C 29,9.383 28.617,9 28.125,9 l -0.25,0 C 27.383,9 27,9.383 27,9.875 L 27,13 25,13 25,9.875 C 25,9.383 24.617,9 24.125,9 l -0.25,0 C 23.383,9 23,9.383 23,9.875 L 23,13 21,13 21,9.875 C 21,9.383 20.617,9 20.125,9 m -1.594,6 10.938,0 C 31.43,15 33,16.57 33,18.531 l 0,10.938 C 33,31.43 31.43,33 29.469,33 l -10.938,0 c -1.961,0 -3.5,-1.57 -3.5,-3.531 l 0,-10.938 C 15.031,16.57 16.57,15 18.531,15 m 0,0"
           id="path55-2"
           inkscape:connector-curvature="0"
           style="fill:#f2f2f2;fill-opacity:1;fill-rule:nonzero;stroke:none" />
        <path
           d="m 19.762,17 c -1.527,0 -2.746,1.219 -2.746,2.746 l 0,8.5 c 0,1.527 1.219,2.746 2.746,2.746 l 8.5,0 c 1.527,0 2.746,-1.219 2.746,-2.746 l 0,-8.5 C 31.008,18.219 29.789,17 28.262,17 m -8.5,0"
           id="path57-2"
           inkscape:connector-curvature="0"
           style="fill:#f2f2f2;fill-opacity:1;fill-rule:nonzero;stroke:none" />
      </g>
    </g>
  </g>
</svg>
